assets/images/swiss/ic-class.svg

<svg height="31" viewBox="0 0 23 31" width="23" xmlns="http://www.w3.org/2000/svg"><g fill="#dc0018" transform="translate(0 -1)"><path d="m22.5882353 9.39267765-7.5299953-7.53573647h-15.05824v30.11764702h22.5882353zm-1.8823529 20.69955765h-18.82352946v-26.35294118h12.39580236l6.4277271 6.43267768z"/><path d="m3.921638 9.374513h7.516781v1.879134h-7.516781z"/><path d="m3.921638 15.012047h13.154184v1.879134h-13.154184z"/><path d="m3.921638 20.649562h13.154184v1.879134h-13.154184z"/></g></svg>

<?xml version="1.0" encoding="UTF-8"?>
<svg width="23px" height="31px" viewBox="0 0 23 31" version="1.1" xmlns="http://www.w3.org/2000/svg" xmlns:xlink="http://www.w3.org/1999/xlink">
    <!-- Generator: sketchtool 49.3 (51167) - http://www.bohemiancoding.com/sketch -->
    <title>D5E5BC91-07FF-4ED0-88F9-4F9DB87819A4</title>
    <desc>Created with sketchtool.</desc>
    <defs></defs>
    <g id="Page-1" stroke="none" stroke-width="1" fill="none" fill-rule="evenodd">
        <g id="TCF-Participant---Properties" transform="translate(-50.000000, -141.000000)" fill="#DC0018" fill-rule="nonzero">
            <g id="Tree">
                <g id="Title" transform="translate(45.000000, 140.000000)">
                    <g id="ic-document-white">
                        <g id="document" transform="translate(5.000000, 0.000000)">
                            <path d="M22.5882353,9.39267765 L15.05824,1.85694118 L0,1.85694118 L0,31.9745882 L22.5882353,31.9745882 L22.5882353,9.39267765 Z M20.7058824,30.0922353 L1.88235294,30.0922353 L1.88235294,3.73929412 L14.2781553,3.73929412 L20.7058824,10.1719718 L20.7058824,30.0922353 Z" id="Shape"></path>
                            <rect id="Rectangle-path" x="3.92163765" y="9.37451294" width="7.51678118" height="1.87913412"></rect>
                            <rect id="Rectangle-path" x="3.92163765" y="15.0120471" width="13.1541835" height="1.87913412"></rect>
                            <rect id="Rectangle-path" x="3.92163765" y="20.6495624" width="13.1541835" height="1.87913412"></rect>
                        </g>
                    </g>
                </g>
            </g>
        </g>
    </g>
</svg>
